X:2299
T:Svingedans
T:(FMK Ske 22 bild 29)
B:Folkmusikkommissionen
R:Svingedans
S:John Enninger saml
O:????, Skåne
Z:Åke Persson 2012-02-28
M:3/4
L:1/8
Q:108
%%printtempo 0
%%MIDI ratio 2 1
K:G
|: G2 AcBA | d2 eg f2 | a2 egfa | ge d2 d2 :|
|: dgfedc | (Bd)cAFD | GBAcBd | cA G2 G2 :|
(:musicend:)
(:music:)
